preferences/24/preferences-kde-connect.svg

<?xml version="1.0" encoding="UTF-8" standalone="no"?>
<!-- Created with Inkscape (http://www.inkscape.org/) -->

<svg
   width="24"
   height="24"
   viewBox="0 0 6.3499999 6.35"
   version="1.1"
   id="svg5"
   inkscape:version="1.4.2 (ebf0e940d0, 2025-05-08)"
   sodipodi:docname="preferences-kde-connect.svg"
   xml:space="preserve"
   xmlns:inkscape="http://www.inkscape.org/namespaces/inkscape"
   xmlns:sodipodi="http://sodipodi.sourceforge.net/DTD/sodipodi-0.dtd"
   xmlns="http://www.w3.org/2000/svg"
   xmlns:svg="http://www.w3.org/2000/svg"><sodipodi:namedview
     id="namedview7"
     pagecolor="#ffffff"
     bordercolor="#000000"
     borderopacity="0.25"
     inkscape:showpageshadow="false"
     inkscape:pageopacity="0.0"
     inkscape:pagecheckerboard="0"
     inkscape:deskcolor="#d1d1d1"
     inkscape:document-units="px"
     showgrid="true"
     inkscape:zoom="26.910888"
     inkscape:cx="8.8625838"
     inkscape:cy="14.492275"
     inkscape:window-width="2560"
     inkscape:window-height="1367"
     inkscape:window-x="0"
     inkscape:window-y="0"
     inkscape:window-maximized="1"
     inkscape:current-layer="layer1"><inkscape:grid
       type="xygrid"
       id="grid3636"
       originx="0"
       originy="0"
       spacingy="1"
       spacingx="1"
       units="px" /></sodipodi:namedview><defs
     id="defs2"><style
       type="text/css"
       id="current-color-scheme">
      .ColorScheme-Text {
        color:#36404d;
      }
      </style><style
       type="text/css"
       id="current-color-scheme-67">
      .ColorScheme-Text {
        color:#122036;
      }
      </style><style
       type="text/css"
       id="current-color-scheme-7">
      .ColorScheme-Text {
        color:#122036;
      }
      </style><style
       type="text/css"
       id="current-color-scheme-5">
      .ColorScheme-Text {
        color:#122036;
      }
      </style><style
       type="text/css"
       id="current-color-scheme-6">
      .ColorScheme-Text {
        color:#122036;
      }
      </style><style
       type="text/css"
       id="current-color-scheme-1">
      .ColorScheme-Text {
        color:#122036;
      }
      </style><style
       id="current-color-scheme-10"
       type="text/css">
      .ColorScheme-Text {
        color:#122036;
      }
      </style><style
       id="current-color-scheme-5-7"
       type="text/css">
      .ColorScheme-Text {
        color:#122036;
      }
      </style><style
       id="current-color-scheme-1-2"
       type="text/css">
      .ColorScheme-Text {
        color:#122036;
      }
      </style><style
       type="text/css"
       id="current-color-scheme-10-9">
      .ColorScheme-Text {
        color:#122036;
      }
      </style></defs><g
     inkscape:label="Capa 1"
     inkscape:groupmode="layer"
     id="layer1"><g
       id="g2"
       transform="matrix(1.4432619,0,0,0.94611846,-1.4122725,0.16615796)"><g
         id="g1"><path
           id="rect1728-7"
           style="fill:#4b6377;fill-opacity:1;stroke-width:0.529167;stroke-linecap:round;stroke-linejoin:round;stroke-miterlimit:1.8;paint-order:fill markers stroke;stop-color:#000000"
           d="m 1.8520833,0.79374999 h 2.6458343 c 0.1465792,0 0.2645834,0.11800416 0.2645834,0.26458331 v 4.2333332 c 0,0.1465791 -0.1180042,0.2645833 -0.2645834,0.2645833 H 1.8520833 C 1.7055042,5.5562498 1.5875,5.4382456 1.5875,5.2916665 V 1.0583333 c 0,-0.14657915 0.1180042,-0.26458331 0.2645833,-0.26458331 z"
           sodipodi:nodetypes="sssssssss" /><path
           id="rect3634"
           style="opacity:1;fill:#44acff;fill-opacity:1;stroke-width:0.529167;stroke-linecap:round;stroke-linejoin:round;stroke-miterlimit:1.8;paint-order:fill markers stroke;stop-color:#000000"
           d="M 1.8520833,1.0583333 H 4.4979166 V 5.2916664 H 1.8520833 Z" /><path
           id="rect1728"
           style="opacity:1;fill:#363c4d;fill-opacity:1;stroke-width:0.529167;stroke-linecap:round;stroke-linejoin:round;stroke-miterlimit:1.8;paint-order:fill markers stroke;stop-color:#000000"
           d="m 1.8520833,0.52916666 c -0.2931574,0 -0.5291666,0.23600926 -0.5291666,0.52916664 v 4.2333333 c 0,0.2931574 0.2360092,0.5291667 0.5291666,0.5291667 h 2.6458333 c 0.2931574,0 0.5291667,-0.2360093 0.5291667,-0.5291667 V 1.0583333 c 0,-0.29315738 -0.2360093,-0.52916664 -0.5291667,-0.52916664 H 3.7052002 2.6447998 Z m -0.00103,0.26458333 H 2.38125 V 1.0593669 c 0,0.1461321 0.1174176,0.2635498 0.2635498,0.2635498 h 1.0604004 c 0.1461321,0 0.2635498,-0.1174177 0.2635498,-0.2635498 V 0.79374999 h 0.5302002 c 0.1461319,0 0.2635498,0.11741778 0.2635498,0.26354981 V 5.2927002 C 4.7625,5.4388321 4.6450821,5.55625 4.4989502,5.55625 H 1.8510498 C 1.7049177,5.55625 1.5875,5.4388321 1.5875,5.2927002 V 1.0572998 c 0,-0.14613203 0.1174177,-0.26354981 0.2635498,-0.26354981 z m 1.0593668,0 H 3.4395833 V 1.0583333 H 2.9104166 Z" /><path
           id="rect6388"
           style="opacity:1;fill:#363c4d;fill-opacity:1;stroke-width:0.529167;stroke-linecap:round;stroke-linejoin:round;stroke-miterlimit:1.8;paint-order:fill markers stroke;stop-color:#000000"
           d="m 2.5135416,4.7624998 h 1.3229166 c 0.07329,0 0.1322917,0.059002 0.1322917,0.1322917 0,0.07329 -0.059002,0.1322917 -0.1322917,0.1322917 H 2.5135416 c -0.07329,0 -0.1322917,-0.059002 -0.1322917,-0.1322917 0,-0.07329 0.059002,-0.1322917 0.1322917,-0.1322917 z" /></g></g></g></svg>

<?xml version="1.0" encoding="UTF-8" standalone="no"?>
<!-- Created with Inkscape (http://www.inkscape.org/) -->

<svg
   width="24"
   height="24"
   viewBox="0 0 6.3499999 6.35"
   version="1.1"
   id="svg5"
   inkscape:version="1.2 (dc2aedaf03, 2022-05-15)"
   sodipodi:docname="preferences-kde-connect.svg"
   xml:space="preserve"
   xmlns:inkscape="http://www.inkscape.org/namespaces/inkscape"
   xmlns:sodipodi="http://sodipodi.sourceforge.net/DTD/sodipodi-0.dtd"
   xmlns="http://www.w3.org/2000/svg"
   xmlns:svg="http://www.w3.org/2000/svg"><sodipodi:namedview
     id="namedview7"
     pagecolor="#ffffff"
     bordercolor="#000000"
     borderopacity="0.25"
     inkscape:showpageshadow="false"
     inkscape:pageopacity="0.0"
     inkscape:pagecheckerboard="0"
     inkscape:deskcolor="#d1d1d1"
     inkscape:document-units="px"
     showgrid="true"
     inkscape:zoom="26.910888"
     inkscape:cx="8.8625838"
     inkscape:cy="14.510855"
     inkscape:window-width="2160"
     inkscape:window-height="1335"
     inkscape:window-x="0"
     inkscape:window-y="0"
     inkscape:window-maximized="1"
     inkscape:current-layer="layer1"><inkscape:grid
       type="xygrid"
       id="grid3636" /></sodipodi:namedview><defs
     id="defs2"><style
       type="text/css"
       id="current-color-scheme">
      .ColorScheme-Text {
        color:#36404d;
      }
      </style><style
       type="text/css"
       id="current-color-scheme-67">
      .ColorScheme-Text {
        color:#122036;
      }
      </style><style
       type="text/css"
       id="current-color-scheme-7">
      .ColorScheme-Text {
        color:#122036;
      }
      </style><style
       type="text/css"
       id="current-color-scheme-5">
      .ColorScheme-Text {
        color:#122036;
      }
      </style><style
       type="text/css"
       id="current-color-scheme-6">
      .ColorScheme-Text {
        color:#122036;
      }
      </style><style
       type="text/css"
       id="current-color-scheme-1">
      .ColorScheme-Text {
        color:#122036;
      }
      </style><style
       id="current-color-scheme-10"
       type="text/css">
      .ColorScheme-Text {
        color:#122036;
      }
      </style><style
       id="current-color-scheme-5-7"
       type="text/css">
      .ColorScheme-Text {
        color:#122036;
      }
      </style><style
       id="current-color-scheme-1-2"
       type="text/css">
      .ColorScheme-Text {
        color:#122036;
      }
      </style><style
       type="text/css"
       id="current-color-scheme-10-9">
      .ColorScheme-Text {
        color:#122036;
      }
      </style></defs><g
     inkscape:label="Capa 1"
     inkscape:groupmode="layer"
     id="layer1"><path
       id="rect1728-7"
       style="fill:#4b6377;stroke-width:0.529167;stroke-linecap:round;stroke-linejoin:round;stroke-miterlimit:1.8;paint-order:fill markers stroke;stop-color:#000000;fill-opacity:1"
       d="m 1.8520833,0.79374999 h 2.6458343 c 0.1465792,0 0.2645834,0.11800416 0.2645834,0.26458331 v 4.2333332 c 0,0.1465791 -0.1180042,0.2645833 -0.2645834,0.2645833 H 1.8520833 C 1.7055042,5.5562498 1.5875,5.4382456 1.5875,5.2916665 V 1.0583333 c 0,-0.14657915 0.1180042,-0.26458331 0.2645833,-0.26458331 z"
       sodipodi:nodetypes="sssssssss" /><path
       id="rect3634"
       style="opacity:1;fill:#44acff;stroke-width:0.529167;stroke-linecap:round;stroke-linejoin:round;stroke-miterlimit:1.8;paint-order:fill markers stroke;stop-color:#000000;fill-opacity:1"
       d="M 1.8520833,1.0583333 H 4.4979166 V 5.2916664 H 1.8520833 Z" /><path
       id="rect1728"
       style="opacity:1;fill:#363c4d;stroke-width:0.529167;stroke-linecap:round;stroke-linejoin:round;stroke-miterlimit:1.8;paint-order:fill markers stroke;stop-color:#000000;fill-opacity:1"
       d="M 1.8520833 0.52916666 C 1.5589259 0.52916666 1.3229167 0.76517592 1.3229167 1.0583333 L 1.3229167 5.2916666 C 1.3229167 5.584824 1.5589259 5.8208333 1.8520833 5.8208333 L 4.4979166 5.8208333 C 4.791074 5.8208333 5.0270833 5.584824 5.0270833 5.2916666 L 5.0270833 1.0583333 C 5.0270833 0.76517592 4.791074 0.52916666 4.4979166 0.52916666 L 3.7052002 0.52916666 L 2.6447998 0.52916666 L 1.8520833 0.52916666 z M 1.8510498 0.79374999 L 2.38125 0.79374999 L 2.38125 1.0593669 C 2.38125 1.205499 2.4986676 1.3229167 2.6447998 1.3229167 L 3.7052002 1.3229167 C 3.8513323 1.3229167 3.96875 1.205499 3.96875 1.0593669 L 3.96875 0.79374999 L 4.4989502 0.79374999 C 4.6450821 0.79374999 4.7625 0.91116777 4.7625 1.0572998 L 4.7625 5.2927002 C 4.7625 5.4388321 4.6450821 5.55625 4.4989502 5.55625 L 1.8510498 5.55625 C 1.7049177 5.55625 1.5875 5.4388321 1.5875 5.2927002 L 1.5875 1.0572998 C 1.5875 0.91116777 1.7049177 0.79374999 1.8510498 0.79374999 z M 2.9104166 0.79374999 L 3.4395833 0.79374999 L 3.4395833 1.0583333 L 2.9104166 1.0583333 L 2.9104166 0.79374999 z " /><path
       id="rect6388"
       style="opacity:1;fill:#363c4d;stroke-width:0.529167;stroke-linecap:round;stroke-linejoin:round;stroke-miterlimit:1.8;paint-order:fill markers stroke;stop-color:#000000;fill-opacity:1"
       d="m 2.5135416,4.7624998 h 1.3229166 c 0.07329,0 0.1322917,0.059002 0.1322917,0.1322917 0,0.07329 -0.059002,0.1322917 -0.1322917,0.1322917 H 2.5135416 c -0.07329,0 -0.1322917,-0.059002 -0.1322917,-0.1322917 0,-0.07329 0.059002,-0.1322917 0.1322917,-0.1322917 z" /></g></svg>
